X:1
T: Among the Heather
C:
R:Strathspey
Q:128
K:A
M:4/4
L:1/16
|:A,3B, C3D EC3 C3E|F3G A3F EA3 Ac3|A,3B, C3D EC3 C3c|d3B c3A GB3 Bc3|
A,3B, C3D EC3 C3E|F3G A3F EA3 Ac3|A,3B, C3D EC3 C3c|d3B c3A GB3 Bc3|
A3c e3f fa3 ea3|f3a e3c dcBA Bc3|A3c e3a fa3 ea3|d3B c3A GB3 Bc3|
A3c e3f fa3 ea3|f3a e3c dcBA Bc3|A3c e3a fa3 ea3|d3B c3A GB3 Bc3:|
